src/icons/svgs/qq.svg

<svg class="icon" viewBox="0 0 1024 1024" xmlns="http://www.w3.org/2000/svg" width="200" height="200"><path d="M198.529 466.723l-1.684-5.189-1.348-6.805-.942-3.738v-15.329l1.617-5.996 1.684-6.402 2.156-6.636 2.931-7.446 3.874-7.747 5.457-7.749v-5.424l.539-5.087.809-6.906 2.358-7.715 2.156-8.388 1.718-3.874 1.988-3.571 2.56-4.009 2.763-2.931v-19.202l1.617-9.837 1.617-11.454 2.896-13.746 3.976-14.216 2.965-7.883 2.931-8.523 3.2-7.984 3.841-8.523 3.907-9.332 4.515-8.759 5.053-9.365 6.4-9.298 2.932-5.323 3.166-4.413 6.839-9.871 7.007-9.837 8.018-10.107 8.557-9.904 9.298-9.703 9.702-9.971 11.724-10.78 7.479-6.536 9.062-7.075 9.196-6.266 9.972-5.996 9.568-5.323 10.78-4.379 11.454-5.457 11.387-3.74 11.387-3.874 12.263-3.841 12.262-2.93 12.936-2.393 13.071-2.156 12.869-1.718 12.936-1.752 13.745-.774h40.628l13.543 1.718 13.611 1.617 13.879 1.449 12.869 3.099 13.61 2.897 12.769 3.301 13.981 3.774 12.8 4.514 12.263 5.188 13.072 5.457 11.959 5.997 11.589 6.67 11.353 7.344 9.835 6.771 4.515 3.875 4.783 2.762 9.098 7.749 7.679 7.479 7.614 7.714 7.48 8.523 6.129 8.254 7.278 8.523 5.121 9.163 5.154 8.153 5.491 9.466 4.516 8.253 7.679 17.452 3.775 9.028 2.93 8.422 2.931 9.029 2.628 8.556 1.885 7.311 2.359 8.658 4.177 15.429 2.662 13.476 1.717 13.071 1.484 10.51 2.357 15.969.539 2.56 1.887 2.897 5.052 8.288 3.235 5.558 2.897 5.895 3.706 6.233 3.232 7.479 2.09 7.714 2.291 8.388 1.752 8.659.81 4.244.674 5.188v4.549l-.674 4.547v5.593l-1.349 5.457-2.426 10.511-2.761 5.322-2.023 5.997v1.483l.945 1.853 2.761 4.412 11.993 17.721 9.501 13.272 4.515 8.962 6.13 9.702 5.325 10.646 6.128 11.453 6.133 12.803 6.907 14.519 3.873 8.928 3.57 8.623 3.101 9.231 3.031 8.22 2.29 8.692 2.361 8.117 2.962 15.869 2.36 16.238 1.616 14.35v20.281l-1.077 7.209-1.551 12.365-2.155 11.184-3.303 10.106-1.213 4.142-2.29 4.92-1.954 3.471-2.558 4.277-2.292 2.664-2.898 3.469-2.56 2.762-2.762 2.425-3.303 1.45-2.963 1.449-2.426.806H912.319l-2.391-.806-4.549-2.225-2.088-1.48-2.157-1.619-2.392-2.123-2.392-2.391-3.974-4.381-4.717-6.264-3.705-6.404-3.706-5.185-3.605-5.997-5.086-10.646-5.729-11.084-.674-.369h-.942l-2.358 1.719-1.348 2.929-2.222 3.571-3.91 10.814-5.861 15.326-7.547 18.362-5.659 9.199-5.962 9.566-7.04 10.779-7.481 10.581-3.841 4.783-4.647 5.185-10.68 10.512.943.943 1.449 1.483 5.322 3.168 22.234 10.644 9.703 5.459 9.232 5.323 9.163 6.669 8.152 6.94 3.974 3.064 2.966 3.606 3.031 4.109 2.562 4.551 1.345 3.736 1.686 4.516.675 3.842.806 4.547-.806 3.066v3.031l-.675 3.233-1.686 2.9-.671 2.289-1.484 2.762-4.043 5.492-3.706 4.412-2.895 3.301-2.427 2.426-6.132 4.515-6.939 3.875-7.412 3.739-7.883 3.572-8.893 3.434-4.718 1.484-4.244 1.213-10.241 2.39-10.645 2.258-10.647 2.291-11.586 1.852-11.994.506-12.264 1.482h-38.066l-13.745-.809-12.802-1.179-13.746-1.852-13.676-1.482-14.419-2.022-13.946-3.435-13.611-2.697-13.543-3.838-13.879-4.92-13.611-4.143-7.142-2.392-6.401-2.291-4.042-1.551-3.974-.809h-11.321l-13.071-.941-6.636-.676-8.524-.941-5.457 4.918-7.478 4.683-10.107 4.951-11.185 6.131-6.805 3.303-7.074 2.66-15.699 6.402-8.523 2.121-8.928 2.426-12.397 2.358-7.748.674-8.221.675-8.556.942-9.972.406h-40.729l-23.009-.406-22.302-2.291-11.32-1.547-10.915-1.619-10.645-1.618-10.645-2.121-9.871-3.201-9.872-2.258-8.893-3.603-8.422-3.303-7.816-3.771-6.805-4.112-6.804-4.918-2.292-2.425-3.032-2.899-2.291-2.558-2.088-2.899-1.887-2.963-1.482-2.898-2.122-6.266-.775-3.201-.943-3.604v-3.302l.943-3.739v-3.74l.775-3.74v-7.443l.37-4.012 1.752-4.547 1.482-4.512 2.696-5.459 1.954-2.123 1.616-2.39 4.246-5.188 3.368-2.697 3.167-1.852 2.931-2.392 4.682-1.481 3.706-2.224 4.649-2.424 5.323-1.586 5.322-1.615 6.132-1.315 5.862-.81 6.94-.942 7.479-.539 1.987-.674h.404l.943-.808v-.875l-1.347-1.887-4.009-1.889-9.972-8.623-6.669-5.322-7.75-6.805-7.815-7.582-8.153-9.736-9.298-10.912-3.503-5.863-4.649-6.129-3.976-7.074-3.57-7.717-4.851-7.313-3.167-8.42-3.74-8.355-3.739-9.365-2.763-8.893-2.56-11.051-.808-.404h-.775l-.404-.809h-.943l-1.584.809-.808.404-1.079 1.854-.404 2.256-.808 2.023-1.415 3.301-4.582 8.152-2.358 4.918-3.739 4.246-4.009 5.186-4.38 5.728-4.649 5.088-5.457 4.918-5.087 4.649-5.559 3.603-6.131 3.875L104 752.67l-6.939 1.752-6.806.639h-1.617l-1.55-.639-1.213-2.693-2.021-1.317-2.627-6.4-1.618-3.471-1.751-4.92-1.448-5.185-.775-5.055-2.157-11.588-.808-6.805v-22.369l.808-16.642 1.348-8.559 1.584-8.756 1.448-9.467 2.559-8.795 2.898-10.138 2.965-9.838 3.975-10.139 3.74-9.703 5.154-9.871L104 572.066l5.862-10.005 6.906-10.782 7.041-9.701 7.344-10.781 6.132-7.479 7.849-8.658 8.253-8.657 3.841-4.109 4.683-4.685 6.771-5.894 6.94-5.963 11.318-10.14 8.557-6.233z"/></svg>

<svg t="1565704059431" class="icon" viewBox="0 0 1024 1024" version="1.1" xmlns="http://www.w3.org/2000/svg" p-id="2803" width="200" height="200"><path d="M198.529 466.723 196.845 461.534 195.497 454.729 194.555 450.991 194.555 446.307 194.555 440.715 194.555 435.662 196.172 429.666 197.856 423.264 200.012 416.628 202.943 409.182 206.817 401.435 212.274 393.686 212.274 388.262 212.813 383.175 213.622 376.269 215.98 368.554 218.136 360.166 219.854 356.292 221.842 352.721 224.402 348.712 227.165 345.781 227.165 340.323 227.165 334.192 227.165 326.579 228.782 316.742 230.399 305.288 233.295 291.542 237.271 277.326 240.236 269.443 243.167 260.92 246.367 252.936 250.208 244.413 254.115 235.081 258.63 226.322 263.683 216.957 270.083 207.659 273.015 202.336 276.181 197.923 283.02 188.052 290.027 178.215 298.045 168.108 306.602 158.204 315.9 148.501 325.602 138.53 337.326 127.75 344.805 121.214 353.867 114.139 363.063 107.873 373.035 101.877 382.603 96.554 393.383 92.175 404.837 86.718 416.224 82.978 427.611 79.104 439.874 75.263 452.136 72.333 465.072 69.94 478.143 67.784 491.012 66.066 503.948 64.314 517.693 63.54 530.765 63.54 544.308 63.54 558.321 63.54 571.864 65.258 585.475 66.875 599.354 68.324 612.223 71.423 625.833 74.32 638.602 77.621 652.583 81.395 665.383 85.909 677.646 91.097 690.718 96.554 702.677 102.551 714.266 109.221 725.619 116.565 735.454 123.336 739.969 127.211 744.752 129.973 753.85 137.722 761.529 145.201 769.143 152.915 776.623 161.438 782.752 169.692 790.03 178.215 795.151 187.378 800.305 195.531 805.796 204.997 810.312 213.25 817.991 230.702 821.766 239.73 824.696 248.152 827.627 257.181 830.255 265.737 832.14 273.048 834.499 281.706 838.676 297.135 841.338 310.611 843.055 323.682 844.539 334.192 846.896 350.161 847.435 352.721 849.322 355.618 854.374 363.906 857.609 369.464 860.506 375.359 864.212 381.592 867.444 389.071 869.534 396.785 871.825 405.173 873.577 413.832 874.387 418.076 875.061 423.264 875.061 427.813 874.387 432.36 874.387 437.953 873.038 443.41 870.612 453.921 867.851 459.243 865.828 465.24 865.828 466.723 866.773 468.576 869.534 472.988 881.527 490.709 891.028 503.981 895.543 512.943 901.673 522.645 906.998 533.291 913.126 544.744 919.259 557.547 926.166 572.066 930.039 580.994 933.609 589.617 936.71 598.848 939.741 607.068 942.031 615.76 944.392 623.877 947.354 639.746 949.714 655.984 951.33 670.334 951.33 678.219 951.33 684.619 951.33 690.615 950.253 697.824 948.702 710.189 946.547 721.373 943.244 731.479 942.031 735.621 939.741 740.541 937.787 744.012 935.229 748.289 932.937 750.953 930.039 754.422 927.479 757.184 924.717 759.609 921.414 761.059 918.451 762.508 916.025 763.314 913.902 763.314 912.319 763.314 909.928 762.508 905.379 760.283 903.291 758.803 901.134 757.184 898.742 755.061 896.35 752.67 892.376 748.289 887.659 742.025 883.954 735.621 880.248 730.436 876.643 724.439 871.557 713.793 865.828 702.709 865.154 702.34 864.212 702.34 861.854 704.059 860.506 706.988 858.284 710.559 854.374 721.373 848.513 736.699 840.966 755.061 835.307 764.26 829.345 773.826 822.305 784.605 814.824 795.186 810.983 799.969 806.336 805.154 795.656 815.666 796.599 816.609 798.048 818.092 803.37 821.26 825.604 831.904 835.307 837.363 844.539 842.686 853.702 849.355 861.854 856.295 865.828 859.359 868.794 862.965 871.825 867.074 874.387 871.625 875.732 875.361 877.418 879.877 878.093 883.719 878.899 888.266 878.093 891.332 878.093 894.363 877.418 897.596 875.732 900.496 875.061 902.785 873.577 905.547 869.534 911.039 865.828 915.451 862.933 918.752 860.506 921.178 854.374 925.693 847.435 929.568 840.023 933.307 832.14 936.879 823.247 940.313 818.529 941.797 814.285 943.01 804.044 945.4 793.399 947.658 782.752 949.949 771.166 951.801 759.172 952.307 746.908 953.789 734.782 953.789 721.979 953.789 708.842 953.789 695.097 952.98 682.295 951.801 668.549 949.949 654.873 948.467 640.454 946.445 626.508 943.01 612.897 940.313 599.354 936.475 585.475 931.555 571.864 927.412 564.722 925.02 558.321 922.729 554.279 921.178 550.305 920.369 545.116 920.369 538.984 920.369 525.913 919.428 519.277 918.752 510.753 917.811 505.296 922.729 497.818 927.412 487.711 932.363 476.526 938.494 469.721 941.797 462.647 944.457 446.948 950.859 438.425 952.98 429.497 955.406 417.1 957.764 409.352 958.438 401.131 959.113 392.575 960.055 382.603 960.461 373.035 960.461 363.063 960.461 341.874 960.461 318.865 960.055 296.563 957.764 285.243 956.217 274.328 954.598 263.683 952.98 253.038 950.859 243.167 947.658 233.295 945.4 224.402 941.797 215.98 938.494 208.164 934.723 201.359 930.611 194.555 925.693 192.263 923.268 189.231 920.369 186.94 917.811 184.852 914.912 182.965 911.949 181.483 909.051 179.361 902.785 178.586 899.584 177.643 895.98 177.643 892.678 178.586 888.939 178.586 885.199 179.361 881.459 179.361 879.203 179.361 874.016 179.731 870.004 181.483 865.457 182.965 860.945 185.661 855.486 187.615 853.363 189.231 850.973 193.477 845.785 196.845 843.088 200.012 841.236 202.943 838.844 207.625 837.363 211.331 835.139 215.98 832.715 221.303 831.129 226.625 829.514 232.757 828.199 238.619 827.389 245.559 826.447 253.038 825.908 255.025 825.234 255.429 825.234 256.372 824.426 256.372 823.551 255.025 821.664 251.016 819.775 241.044 811.152 234.375 805.83 226.625 799.025 218.81 791.443 210.657 781.707 201.359 770.795 197.856 764.932 193.207 758.803 189.231 751.729 185.661 744.012 180.81 736.699 177.643 728.279 173.903 719.924 170.164 710.559 167.401 701.666 164.841 690.615 164.033 690.211 163.258 690.211 162.854 689.402 161.911 689.402 160.327 690.211 159.519 690.615 158.44 692.469 158.036 694.725 157.228 696.748 155.813 700.049 151.231 708.201 148.873 713.119 145.134 717.365 141.125 722.551 136.745 728.279 132.096 733.367 126.639 738.285 121.552 742.934 115.993 746.537 109.862 750.412 104 752.67 97.061 754.422 90.255 755.061 89.582 755.061 88.638 755.061 87.088 754.422 85.875 751.729 83.854 750.412 81.227 744.012 79.609 740.541 77.858 735.621 76.41 730.436 75.635 725.381 73.478 713.793 72.67 706.988 72.67 700.049 72.67 684.619 73.478 667.977 74.826 659.418 76.41 650.662 77.858 641.195 80.417 632.4 83.315 622.262 86.28 612.424 90.255 602.285 93.995 592.582 99.149 582.711 104 572.066 109.862 562.061 116.768 551.279 123.809 541.578 131.153 530.797 137.285 523.318 145.134 514.66 153.387 506.003 157.228 501.894 161.911 497.209 168.682 491.315 175.622 485.352 186.94 475.212 195.497 468.979Z" p-id="2804"></path></svg>
